dist/images/icons/icon-facebook.svg

<svg width="10" height="21" viewBox="0 0 10 21" fill="none" xmlns="http://www.w3.org/2000/svg">
<path d="M2.54678 20.5561V10.9246H0V7.45674H2.54678V4.49477C2.54678 2.16723 4.05118 0.0297852 7.51762 0.0297852C8.92113 0.0297852 9.95896 0.164335 9.95896 0.164335L9.87718 3.40269C9.87718 3.40269 8.81876 3.39239 7.66377 3.39239C6.41371 3.39239 6.21344 3.96846 6.21344 4.92459V7.45674H9.97655L9.81281 10.9246H6.21344V20.5561H2.54678Z" fill="black"/>
</svg>

<svg width="10" height="21" fill="none" xmlns="http://www.w3.org/2000/svg"><path d="M2.547 20.556v-9.631H0V7.457h2.547V4.495C2.547 2.167 4.05.03 7.517.03 8.922.03 9.96.164 9.96.164l-.082 3.239s-1.058-.01-2.213-.01c-1.25 0-1.45.575-1.45 1.532v2.532h3.763l-.164 3.468h-3.6v9.631H2.547z" fill="#000"/></svg>
